shell/res/secondaryleftmenu/KeyboardWhite.svg

<?xml version="1.0" encoding="utf-8"?>
<!-- Generator: Adobe Illustrator 24.0.2, SVG Export Plug-In . SVG Version: 6.00 Build 0)  -->
<!DOCTYPE svg PUBLIC "-//W3C//DTD SVG 1.1//EN" "http://www.w3.org/Graphics/SVG/1.1/DTD/svg11.dtd" [
	<!ENTITY ns_extend "http://ns.adobe.com/Extensibility/1.0/">
	<!ENTITY ns_ai "http://ns.adobe.com/AdobeIllustrator/10.0/">
	<!ENTITY ns_graphs "http://ns.adobe.com/Graphs/1.0/">
	<!ENTITY ns_vars "http://ns.adobe.com/Variables/1.0/">
	<!ENTITY ns_imrep "http://ns.adobe.com/ImageReplacement/1.0/">
	<!ENTITY ns_sfw "http://ns.adobe.com/SaveForWeb/1.0/">
	<!ENTITY ns_custom "http://ns.adobe.com/GenericCustomNamespace/1.0/">
	<!ENTITY ns_adobe_xpath "http://ns.adobe.com/XPath/1.0/">
]>
<svg version="1.1" id="图层_1" xmlns:x="&ns_extend;" xmlns:i="&ns_ai;" xmlns:graph="&ns_graphs;"
	 xmlns="http://www.w3.org/2000/svg" xmlns:xlink="http://www.w3.org/1999/xlink" x="0px" y="0px" viewBox="0 0 24 24"
	 enable-background="new 0 0 24 24" xml:space="preserve">
<metadata>
	<sfw  xmlns="&ns_sfw;">
		<slices></slices>
		<sliceSourceBounds  bottomLeftOrigin="true" height="1298" width="1504" x="-206" y="-620"></sliceSourceBounds>
	</sfw>
</metadata>
<path fill="#FFFFFF" d="M20,3H4C2.3,3,1,4.3,1,6v12c0,1.7,1.3,3,3,3h16c1.7,0,3-1.3,3-3V6C23,4.3,21.7,3,20,3z M5,9h3v2H5V9z M14,15
	H5v-2h9V15z M14,11h-4V9h4V11z M19,15h-3v-2h3V15z M19,11h-3V9h3V11z"/>
</svg>

<svg id="图层_1" data-name="图层 1" xmlns="http://www.w3.org/2000/svg" viewBox="0 0 24 24"><defs><style>.cls-1{fill:#fff;}</style></defs><title>keyboardWhite</title><path class="cls-1" d="M20,3H4A3,3,0,0,0,1,6V18a3,3,0,0,0,3,3H20a3,3,0,0,0,3-3V6A3,3,0,0,0,20,3ZM5,9H8v2H5Zm9,6H5V13h9Zm0-4H10V9h4Zm5,4H16V13h3Zm0-4H16V9h3Z"/></svg>
